src/dsmComponents/Icons/fall-detected-16px.svg

<?xml version="1.0" encoding="UTF-8"?>
<svg width="16px" height="13px" viewBox="0 0 16 13" version="1.1" xmlns="http://www.w3.org/2000/svg" xmlns:xlink="http://www.w3.org/1999/xlink">
    <!-- Generator: Sketch 59.1 (86144) - https://sketch.com -->
    <title>fall-detected-16px</title>
    <desc>Created with Sketch.</desc>
    <defs>
        <path d="M12.9775356,7.11687911 L15.457071,7.36136822 C15.7873673,7.40211641 16.0279192,7.71063839 15.9973876,8.05990856 C15.9659308,8.41694029 15.6874457,8.69538623 15.346047,8.70896896 L12.2077694,8.63717454 L10.941171,7.45062616 L7.73350341,10.8967585 C7.27830513,11.3818559 6.60661011,11.5496997 5.99782867,11.3294654 L3.03811465,11.1936381 L1.33574709,12.776026 C1.03228157,13.0583528 0.580784094,13.0758163 0.258814579,12.8167742 C0.247712182,12.8090127 0.237534984,12.8002809 0.229208186,12.7925193 C-0.0465013409,12.5431793 -0.0779581327,12.1065915 0.159818205,11.8174735 L2.12864329,9.42012183 C2.30813204,9.31340039 2.51630198,9.27944357 2.71707033,9.32504273 L4.88573856,9.21347031 C4.95327814,8.87681268 5.1096369,8.56926089 5.33538564,8.32574197 L7.30050992,6.21847862 L8.30435166,5.18522103 L7.21354115,4.34697263 C7.05810759,4.22666846 6.94985922,4.0471824 6.91377642,3.84441166 L6.39196376,0.880466203 C6.32534938,0.501119991 6.54554692,0.130505535 6.90082363,0.024754289 L6.90267403,0.024754289 C7.24777354,-0.0751757871 7.60490064,0.136326704 7.70112142,0.499179602 L8.40982443,3.17594737 L9.79207287,3.96568603 C9.85591165,4.00255343 9.91419923,4.04912279 9.96693562,4.1034537 C9.96693562,4.1034537 11.737768,5.69069258 11.7803271,5.80517558 L12.9775356,7.11687911 Z M13.9267906,4.25480411 C13.155174,5.08238037 11.9024535,5.08238037 11.1299117,4.25480411 C10.3573699,3.42528746 10.3573699,2.0825377 11.1299117,1.25399124 C11.9024535,0.426414983 13.155174,0.426414983 13.9267906,1.25399124 C14.6993324,2.0825377 14.6993324,3.42528746 13.9267906,4.25480411 L13.9267906,4.25480411 Z M5.51024839,6.96067772 C5.51024839,6.96067772 4.37225269,8.18894449 4.25752792,8.34999684 L2.72632233,6.39020312 L0.604839287,5.9933934 C0.242160983,5.92353936 -0.0150445492,5.58397114 0.000683846618,5.19783357 C0.00160904637,5.18813162 0.00160904637,5.17745947 0.00253424613,5.16678733 C0.0330658381,4.81460658 0.33005496,4.55459434 0.665902471,4.58758097 L3.6071125,4.90192412 L5.51024839,6.96067772 Z" id="path-1"></path>
    </defs>
    <g id="Final" stroke="none" stroke-width="1" fill="none" fill-rule="evenodd">
        <g id="All-Nucleo-Icons" transform="translate(-319.000000, -3359.000000)">
            <g id="Solo/Nucleo/16px/fall-detected" transform="translate(315.000000, 3353.000000)">
                <g id="fall-detected" transform="translate(4.000000, 6.000000)">
                    <mask id="mask-2" fill="white">
                        <use xlink:href="#path-1"></use>
                    </mask>
                    <use id="Mask" fill="#000000" xlink:href="#path-1"></use>
                    <g id="colour/neutral/chia" mask="url(#mask-2)" fill="#737373">
                        <g transform="translate(-24.000000, -25.000000)" id="Colour">
                            <rect x="0" y="0" width="64" height="64"></rect>
                        </g>
                    </g>
                </g>
            </g>
        </g>
    </g>
</svg>

<svg width="16" height="13" xmlns="http://www.w3.org/2000/svg" xmlns:xlink="http://www.w3.org/1999/xlink"><defs><path d="M12.978 7.117l2.48.244c.33.041.57.35.54.699a.696.696 0 01-.652.649l-3.138-.072-1.267-1.186-3.207 3.446a1.613 1.613 0 01-1.736.432l-2.96-.135-1.702 1.582a.816.816 0 01-1.107.017.715.715 0 01-.07-.976L2.13 9.42a.799.799 0 01.588-.095l2.169-.112c.067-.336.224-.644.45-.887L7.3 6.218l1.003-1.033-1.09-.838a.816.816 0 01-.3-.503L6.392.88a.752.752 0 01.509-.855h.002c.345-.1.702.111.798.474l.709 2.677 1.382.79a.806.806 0 01.175.137s1.77 1.588 1.813 1.702l1.198 1.312zm.949-2.862a1.886 1.886 0 01-2.797 0c-.773-.83-.773-2.172 0-3.001a1.886 1.886 0 012.797 0c.772.829.772 2.171 0 3zM5.51 6.96S4.372 8.189 4.258 8.35L2.726 6.39.605 5.993A.767.767 0 010 5.198c0-.01 0-.02.002-.031a.62.62 0 01.663-.58l2.941.315L5.51 6.96z" id="fall-detected-16px_svg__a"/></defs><use fill="#737373" xlink:href="#fall-detected-16px_svg__a" fill-rule="evenodd"/></svg>
